X: 1
T: Andy M.Stewart's Reel
C:Phil Cunningham
N:b stands for natural , normally used with c sharp
M:C
L:1/8
Z: Contributed 2015-09-24 09:27:46 by Schèron Waldner Schöpf sschoepf@t-online.de
K:D
Dddc d3 e| fdec dcAB| =cG (3GGG ec (3ccc| g=cfg a2 fg|
aAfa g2 fe| dcde dcAB|=cG (3GGG cdeg| fgec dBAF :||
|:DA, (3B,=C^C D2 (3DDD| ADFA G=CEG|FDDC Ddde| (3faf ed d2 (3ef^g|
a3 f g fe| fd (3edc dcAB| =cG (3GGG =cdeg| fgec dBAG :|
|FAEA D2 dD| DdAd (3Bcd eg| faec dcAB| =cG (3GGG efge|
aAfa g2 fe| dcde dcAB| =cG (3GGG =cdeg| fgec dBAG|
FAEA D2 dD| (3DDD dA (3Bcd eg| fage fd (3ddd| dfec d2 fg|
aAfa g2 fe| dcde dcAB| =cG (3GGG cdeg| fgec d2 z2||

%%sep 2 1 500

